X: 1298
T: Bonnie Scotland
B: australian traditional tunes wiki
M:6/8
L:1/8
R: Jig
Q: 3/8=100
K:G
V:1 
B||"G"G2gf2g|"C"e2d BAG|"Em"B2ee2e|e3-e2f|"G"g2gf2g|"C"ee zz fg|"D"a2df2e|d3-def|
"C"g2ga2a|"G"g2gg2B|"C"c2de2c|"Am"A3-A2B|"G"G2gf2g|"C"e2dB2G|"D7"A6|"G"G3-G2B||
"G"d2^cd2e|d2B GAB|d2^cd2e|d3-d2d|"C"eeee2e|e2dc2B|"Am"AAAA2A|"D7"AAAA2A|
"G"B2AB2A|G2zA2B|"C"c2de2c|"Am"A3-A2A|"G"G2gf2g|"C"e2dB2G|"D7"A6|"G"G3-G2z||
% abcbook-tune_id 6342d53a654b4a093f222848


% abcbook-boost 0
% abcbook-tablature 
% abcbook-transpose 
% abcbook-lastupdated 1665324357947
% abcbook-soundfonts 
% abcbook-repeats 1
% NFF Book 2006

